X: 42
M: C|
L: 1/8
K: A
cd |\
eagf efed | cdcB A2Bc |\
defe dcBA | GABc B2cd |
eagf efed | cdcB A2Bc |\
defd cBAG | B2A2 A2 :|
|: ED |\
defe dcBA | GABA GFED |
eagf (3efe (3dcB | c2A2 A2 H:|

